X: 48
T:Medus(to TBe.047). TBe.048
M:C|
L:1/4
Q:80
S:Thomas Bennet MS,1718, VWML
R:rigadoon
O:England
H:Before 1718
Z:vmp.C. Graebe..
K:G major
B2A2 | G>A BG | c (B/A/) B (A/G/) | d (c/B/) AG ||!
B2d2 | d d/e/ d/e/d/e/ | f (e/d/) ^cd | \
e/d/e/B/ c/B/A/G/ | B A/G/ FG ||
